X: 95
T: Turnpike Bend
O: Melody from Bruce & Emmett
%R: reel
F: http://ancients.sudburymuster.org/mus/sng/pdf/turnpikeC0.pdf
Z: 2020 John Chambers <jc:trillian.mit.edu>
M: 2/4
L: 1/16
K: G
D2 |\
G3B AGEA | GBdf g2fg | afdf gdBd | ecAG FAD2 |\
G3B AGEA |
GBdf g2fg | afdf gdBd | ecAF G2 :: D2 |\
D2FD ADFA | G2BG dGBd |
A2^cA eAce | dfaf g3f |\
gfed fdcB | cdef g2fg | afdf gdBd | ecAF G2 :|


